DVA
CUT[Wilmens Esel]
CNR[Et war e Wanter hart a kal,
    Wellem fiehrt ma'm Jesel an de Wald]
REG[Europa, Mitteleuropa, Lothringen, Breisdorf ( Kr. Diedenhofen )]
KEY[D0047  16 Bb 2/4 3/4]
MEL[-5_  1_1_1_2_  3_2_1__
    2_1_2_3_  4_223__3__
    5_4_3_2_  3_221__
    2_2_2_3_  1_1_1__
    2__2_1_  3_2_1_-7_  -6__0_ //] >>
FCT[Ballade, Schwank]
CMT[Heptatonik ( Ionisch, Schluss moduliert in parallele Molltonart)
    Inzipit = Variante zum Lied]
